Origami/64x64/apps/cerebro.svg

<svg width="64" height="64" version="1.1" viewBox="0 0 64 64" xmlns="http://www.w3.org/2000/svg">
 <path d="M 32,5 A 28,28 0 0 0 4,33 28,28 0 0 0 32,61 28,28 0 0 0 60,33 28,28 0 0 0 32,5 Z" style="opacity:.2"/>
 <path d="M 32,4 A 28,28 0 0 0 4,32 28,28 0 0 0 32,60 28,28 0 0 0 60,32 28,28 0 0 0 32,4 Z" style="fill:#cccccc"/>
 <path d="m46.4 39.9-14.4 8.2-14.5-8.2v-15.8l14.5-8.2 14.4 8.2" style="fill:none;stroke-width:5;stroke:#454545"/>
 <path d="m40 36.5-8 4.5-8.5-4.8v-8.4l8.5-4.8 8 4.5" style="fill:none;stroke-width:3;stroke:#8644dc"/>
 <path d="M 32 4 A 28 28 0 0 0 4 32 A 28 28 0 0 0 4.0214844 32.40625 A 28 28 0 0 1 32 5 A 28 28 0 0 1 59.978516 32.578125 A 28 28 0 0 0 60 32 A 28 28 0 0 0 32 4 z" style="fill:#ffffff;opacity:.1"/>
</svg>

<svg xmlns="http://www.w3.org/2000/svg" width="64" height="64" version="1.1" viewBox="0 0 64 64">
 <path style="opacity:0.2" d="M 32,5 A 28,28 0 0 0 4,33 28,28 0 0 0 32,61 28,28 0 0 0 60,33 28,28 0 0 0 32,5 Z"/>
 <path style="fill:#cccccc" d="M 32,4 A 28,28 0 0 0 4,32 28,28 0 0 0 32,60 28,28 0 0 0 60,32 28,28 0 0 0 32,4 Z"/>
 <path style="fill:none;stroke:#454545;stroke-width:5" d="M 46.4,39.9 32,48.1 17.5,39.9 V 24.1 L 32,15.9 46.4,24.1"/>
 <path style="fill:none;stroke:#8644dc;stroke-width:3" d="M 40,36.5 32,41 23.5,36.2 V 27.8 L 32,23 l 8,4.5"/>
 <path style="opacity:0.1;fill:#ffffff" d="M 32 4 A 28 28 0 0 0 4 32 A 28 28 0 0 0 4.0214844 32.40625 A 28 28 0 0 1 32 5 A 28 28 0 0 1 59.978516 32.578125 A 28 28 0 0 0 60 32 A 28 28 0 0 0 32 4 z"/>
</svg>
